public/img/mo-icon-home.svg

<svg width="20" height="20" viewBox="0 0 20 20" fill="none" xmlns="http://www.w3.org/2000/svg">
<g clip-path="url(#clip0_44_211)">
<path d="M15.48 18.5051H11.345C11.14 18.5051 10.97 18.3351 10.97 18.1301V11.4651H8.85003V16.4701H8.10003V11.0901C8.10003 10.8851 8.27003 10.7151 8.47503 10.7151H11.345C11.55 10.7151 11.72 10.8851 11.72 11.0901V17.7551H15.105V10.6901C15.105 10.4851 15.275 10.3151 15.48 10.3151H18.16L10.09 2.24512H9.91503L1.84003 10.3151H4.52003C4.72503 10.3151 4.89503 10.4851 4.89503 10.6901V17.7551H8.65503V18.5051H4.52003C4.31503 18.5051 4.14503 18.3351 4.14503 18.1301V11.0651H0.935028C0.785028 11.0651 0.645028 10.9751 0.590028 10.8351C0.535028 10.6951 0.565028 10.5351 0.670028 10.4251L9.49003 1.60512C9.56003 1.53512 9.65503 1.49512 9.75503 1.49512H10.24C10.34 1.49512 10.435 1.53512 10.505 1.60512L19.325 10.4251C19.43 10.5301 19.465 10.6951 19.405 10.8351C19.345 10.9751 19.21 11.0651 19.06 11.0651H15.85V18.1301C15.85 18.3351 15.68 18.5051 15.475 18.5051H15.48Z" fill="#3B3B3B"/>
</g>
<defs>
<clipPath id="clip0_44_211">
<rect width="20" height="20" fill="white"/>
</clipPath>
</defs>
</svg>

<svg xmlns="http://www.w3.org/2000/svg" width="20" height="20" fill="none" viewBox="0 0 20 20"><g clip-path="url(#a)"><path fill="#3B3B3B" d="M15.48 18.505h-4.135a.38.38 0 0 1-.375-.375v-6.665H8.85v5.005H8.1v-5.38c0-.205.17-.375.375-.375h2.87c.205 0 .375.17.375.375v6.665h3.385V10.69c0-.205.17-.375.375-.375h2.68l-8.07-8.07h-.175l-8.075 8.07h2.68c.205 0 .375.17.375.375v7.065h3.76v.75H4.52a.38.38 0 0 1-.375-.375v-7.065H.935a.37.37 0 0 1-.345-.23.39.39 0 0 1 .08-.41l8.82-8.82c.07-.07.165-.11.265-.11h.485c.1 0 .195.04.265.11l8.82 8.82a.377.377 0 0 1-.265.64h-3.21v7.065c0 .205-.17.375-.375.375z"/></g><defs><clipPath id="a"><path fill="#fff" d="M0 0h20v20H0z"/></clipPath></defs></svg>
